X:85
T:Reel 85
L:1/8
M: 4/4
K: G Major
fe|G2GABcBd|cBABcAdB|G2GABcBd|gedBAcBA|G2GABcBd|cBABcdef|gfgegbaf|gedBA2|AB|cdefg2gf|gdBdedBe|cdefgbaf|gedBBAA2|cdefg2gf|gbegb2ag|g2agedef|gedBA2|.abc